X:1
T:Title
%%score ( 1 2 ) ( 3 4 )
L:1/8
Q:1/4=93
M:3/4
K:Db
V:1 treble nm="Grand Piano, Soprano"
V:2 treble 
V:3 bass nm="Choir Pad, Bass"
V:4 bass 
V:1
 [DF][EG] [FA]3 [FA] | [FA][FA] [FB]2 [DF]2 | E[=DF] [EG]3 [EG] | [DF][CG] [DA]4 | %4
w: By~Louis~Piket,~1911 * * *||||
 [DF][EG] [FA]3 [FA] | [FA][FA] [FB]2 [DF]2 | z2 A4 | [CF][CE] [A,D]4 | DD [Fd]3 [Fd] | %9
w: |||||
 [Fc][_FB] [=Fc]2 [FA]2 | z2 B4 | E[DF] [CE]4 | [DF][EG] [FA]3 [FA] | [FB][Gc] [Fd]2 [FA]2 | %14
w: |||||
 [FA][EG] [DF][DG] [DE]2- | [DE][A,D] [A,D]4- | [A,D]4 z2 |] %17
w: |||
V:2
 x6 | x6 | x6 | x6 | x6 | x6 | D[CE] E2 =D[EG] | x6 | x6 | x6 | A=A DD D[EG] | x6 | x6 | x6 | x6 | %15
 x6 | x6 |] %17
V:3
 z2 [D,D][D,D] [D,D][D,D] | [D,D][D,D] [D,D]2 [D,A,]2 | G,F, [E,B,][D,B,] [C,A,][A,,A,] | %3
 [D,A,][E,A,] [F,A,]4 | z2 [D,D][D,D] [D,D][D,D] | [D,D][D,D] [D,D]2 [D,A,]2 | %6
 G,F, B,B, [F,B,][G,B,] | A,[A,,G,] [D,F,]4 | z2 [B,,B,][B,,B,] [B,,B,]B, | %9
 [A,C][=G,C] [A,C]2 [F,C]2 | [F,C][F,C] [G,B,]3 [G,B,] | [C,A,][D,A,] [A,,A,]2 A,2 | %12
 z2 [D,D][D,D] [D,D][D,D] | [D,A,][D,A,] [D,A,]2 [D,D]2 | [F,C][G,B,] A,A, [A,,G,]2- | %15
 [A,,G,][D,F,] [D,F,]4- | [D,F,]4 z2 |] %17
V:4
 x6 | x6 | x6 | x6 | x6 | x6 | z2 E,2 z2 | x6 | x6 | x6 | x6 | x6 | x6 | x6 | x6 | x6 | x6 |] %17

